svg/signal_4g.svg

<?xml version="1.0" encoding="UTF-8"?><!DOCTYPE svg PUBLIC "-//W3C//DTD SVG 1.1//EN" "http://www.w3.org/Graphics/SVG/1.1/DTD/svg11.dtd"><svg xmlns="http://www.w3.org/2000/svg" xmlns:xlink="http://www.w3.org/1999/xlink" version="1.1" id="mdi-signal-4g" width="24" height="24" viewBox="0 0 24 24"><path d="M22,16.5V10.5H17.5V13.5H19V16.5H16V7.5H22V4.5H16A3,3 0 0,0 13,7.5V16.5A3,3 0 0,0 16,19.5H19A3,3 0 0,0 22,16.5M8,19.5H11V4.5H8V10.5H5V4.5H2V13.5H8V19.5Z" /></svg>

<svg xmlns="http://www.w3.org/2000/svg" viewBox="0 0 24 24"><path d="M22 16.5v-6h-4.5v3H19v3h-3v-9h6v-3h-6a3 3 0 0 0-3 3v9a3 3 0 0 0 3 3h3a3 3 0 0 0 3-3m-14 3h3v-15H8v6H5v-6H2v9h6z"/></svg>
